src/assets/filled/TheGraph.svg

<?xml version="1.0" encoding="UTF-8"?>
<svg width="24" height="24" viewBox="0 0 24 24" xmlns="http://www.w3.org/2000/svg">
 <path d="m12 2c-5.52 0-10 4.48-10 10s4.48 10 10 10 10-4.48 10-10-4.48-10-10-10zm-4.06 8.56c0-1.86 1.51-3.38 3.38-3.38 1.87 0 3.38 1.51 3.38 3.38s-1.51 3.38-3.38 3.38c-1.87 0-3.38-1.51-3.38-3.38zm7.65 4.78-3 3c-0.15 0.15-0.34 0.22-0.53 0.22s-0.38-0.07-0.53-0.22c-0.29-0.29-0.29-0.77 0-1.06l3-3c0.29-0.29 0.77-0.29 1.06 0s0.3 0.77 0 1.06zm0.92-7.03c-0.55 0-1-0.45-1-1s0.44-1 1-1h0.01c0.55 0 1 0.45 1 1s-0.46 1-1.01 1z"/>
</svg>

<svg width="24" height="24" viewBox="0 0 24 24"  xmlns="http://www.w3.org/2000/svg">
<path d="M12 2C6.48 2 2 6.48 2 12C2 17.52 6.48 22 12 22C17.52 22 22 17.52 22 12C22 6.48 17.52 2 12 2ZM7.94 10.56C7.94 8.7 9.45001 7.18 11.32 7.18C13.19 7.18 14.7 8.69 14.7 10.56C14.7 12.43 13.19 13.94 11.32 13.94C9.45001 13.94 7.94 12.43 7.94 10.56ZM15.59 15.34L12.59 18.34C12.44 18.49 12.25 18.56 12.06 18.56C11.87 18.56 11.68 18.49 11.53 18.34C11.24 18.05 11.24 17.57 11.53 17.28L14.53 14.28C14.82 13.99 15.3 13.99 15.59 14.28C15.88 14.57 15.89 15.05 15.59 15.34ZM16.51 8.31C15.96 8.31 15.51 7.86 15.51 7.31C15.51 6.76 15.95 6.31 16.51 6.31H16.52C17.07 6.31 17.52 6.76 17.52 7.31C17.52 7.86 17.06 8.31 16.51 8.31Z" />
</svg>
